X:26
T:Maid Behind the Bar, The
T:Green Mountain, The
M:C|
R:reel
Z:Vancouver, Boston
Z:In O'Neill's as the Green Mountain, with a bit different setting.
E:7
K:D
AG|FAAB AFED|FAAB A2 de|fBBA Bcde|f2 gf edBA|FAAB AFED|FAAB A2 de|fBBA BcdB|AFEF D3:|
e|fgag fdde|fdad fd d2|efga beef|gebe ge ~e2|faaf bfaf|defd e2 de|fBBA BcdB|AFEF D3:|
<end>
<start>
